X:87
T: Jungfer Doertchen
N: Q0057Z
O: Mitteleuropa, Deutschland (DDR) , Sachsen, Altmark
N: Dritte und vierte Zeile = Refrain auf sinnfreie Silben.
R: Ballade, Todesahnung, Tod, Selbstmord
M: 4/4
L: 1/8
K: G
D2 | G2D2B2AG | FAABA2
DF | A2AAd2cA | BGG2GA
BG | E2EEG2
FE | EDD2D2
c2 | c2cAG2F2 | AGG2G2

@@@ Tune index: 963
